assets/svg/icon_chat_darkmode.svg

<svg width="24" height="24" viewBox="0 0 24 24" fill="none" xmlns="http://www.w3.org/2000/svg">
<path d="M11.9961 1.75586V2.83919M11.9961 21.1489V22.2323M22.2376 11.9902H21.1543M2.8431 11.9902H1.75977M19.0759 4.89893L18.6504 5.32449M5.32987 18.647L4.9043 19.0726M19.0779 19.0696L18.6523 18.644M5.32987 5.3245L4.9043 4.89893M6.60087 10.0834C6.39009 10.6798 6.27539 11.3214 6.27539 11.99C6.27539 15.1491 8.83632 17.71 11.9954 17.71C15.1545 17.71 17.7154 15.1491 17.7154 11.99C17.7154 8.83095 15.1545 6.27002 11.9954 6.27002C11.3268 6.27002 10.6851 6.38472 10.0887 6.5955" stroke="#0E0E0E" stroke-width="1.5" stroke-linecap="round"/>
</svg>

<svg xmlns="http://www.w3.org/2000/svg" width="24" height="24" fill="none"><path stroke="#0E0E0E" stroke-linecap="round" stroke-width="1.5" d="M11.996 1.756v1.083m0 18.31v1.083M22.238 11.99h-1.084m-18.31 0H1.76M19.076 4.9l-.426.425M5.33 18.647l-.426.426m14.174-.003-.426-.426M5.33 5.324 4.904 4.9m1.697 5.184a5.72 5.72 0 1 0 3.488-3.488"/></svg>
